X:1
T:Cáceres, CMD
T:Cáceres, CMD
T:Scott Werdebaugh, 2017
T:© 2017 Scott Werdebaugh. Reproduce or publish freely for Christian worship or devotions. Courtesy of the Cyber Hymnal™
C:Scott Werdebaugh, 2017
Z:© 2017 Scott Werdebaugh. Reproduce or publish freely for Christian worship or devotions.
Z:Courtesy of the Cyber Hymnal™
%%score 1 2 3
L:1/8
Q:1/4=105
M:4/4
K:C
V:1 treble 
V:2 treble 
V:3 bass 
V:1
 G2 | E3 F G2 G2 | A3 B c3 B | c2 B2 A2 A2 | G4 z2 G2 | E3 F G2 G2 | A3 B c3 B | c2 B2 A2 A2 | %8
 G4 z2 G2 | e3 d c2 c2 | d3 c B2 c2 | d2 c2 d2 B2 | c4 z2 c2 | c3 B A2 B2 | c3 G G2 G2 | %15
 A2 c2 c2 B2 | !fermata!c4 z2 |] %17
V:2
 [EG]2 | [CE]3 [DF] [EG]2 [EG]2 | [FA]3 [FB] [Ec]3 [GB] | [Ac]2 [GB]2 [^FA]2 [DA]2 | %4
 [DG]4 z2 [DG]2 | [CE]3 [D=F] [EG]2 [EG]2 | [FA]3 [FB] [Ec]3 [GB] | [Ac]2 [GB]2 [^FA]2 [DA]2 | %8
 [DG]4 z2 [EG]2 | [Ge]3 [Bd] [Gc]2 [Ac]2 | [Bd]3 [Ac] [GB]2 [Gc]2 | [Bd]2 [Gc]2 [Bd]2 [GB]2 | %12
 [Ec]4 z2 [Gc]2 | [Ac]3 [GB] [FA]2 [GB]2 | [Ec]3 [EG] [EG]2 [EG]2 | [FA]2 [Fc]2 [Gc]2 [FB]2 | %16
 [Ec]4 z2 |] %17
V:3
 [C,C]2 | [C,G,]3 [G,B,] [C,C]2 [E,C]2 | [F,C]3 [G,D] [C,G,]3 [G,D] | %3
 [C,E]2 [G,,D]2 [D,D]2 [^F,C]2 | [G,B,]4 z2 [G,B,]2 | [C,G,]3 [G,B,] [C,C]2 [C,C]2 | %6
 [=F,C]3 [G,D] [C,G,]3 [G,D] | [C,E]2 [G,D]2 [D,D]2 [^F,C]2 | [G,B,]4 z2 [C,C]2 | %9
 [C,C]3 [G,,G,] [E,G,]2 [=F,A,]2 | [G,B,]3 [F,A,] [D,G,]2 [E,C]2 | %11
 [G,B,]2 [E,G,]2 [G,,G,]2 [D,G,]2 | [C,G,]4 z2 [C,E,]2 | [F,A,]3 [E,G,] [F,C]2 [G,D]2 | %14
 [C,G,]3 [C,C] [C,C]2 [C,C]2 | [F,C]2 [F,A,]2 [F,D]2 [G,D]2 | [C,G,]4 z2 |] %17

